X:1
T:Title
%%score { ( 1 3 5 ) | ( 2 4 6 ) }
L:1/8
M:6/8
K:D
V:1 treble nm="Grand Piano"
V:3 treble 
V:5 treble 
V:2 bass 
V:4 bass 
V:6 bass 
V:1
 z3 z2[Q:1/4=95] [FA] | [FA]>[GB][FA] [FA][DF][EG] | [FA][GB][Gc] [Fd]2 [FA] | B>BB [Bd][Ac][GB] | %4
 [FA]3- [FA]2 [DF] | [EG]>[^DF][EG] [CE][CA][EG] | G>FF F2 [DFB] | %7
 [CEA]>[CEA][CEA] [B,E^G][CEA][DGB] |[M:5/8] [CEA]-[CEA]- [CEA]3 |[M:3/16] [CGA]3/2 | %10
[M:3/4] [FA]>[GB] [FA][DF] [EG][FA] |[M:5/8] B-B- B3 |[M:1/8] B | %13
[M:3/4] [^GB]>[Ac] [Bd][Bd] [Ac][GB] | c6 |[M:5/8] [Fd]>[Fd][Fd] [Fd]2 |[M:1/8] [Ad]/[Ad]/ | %17
[M:7/8] e>dB d3 B | %18
[M:27/32] z/4 z/4 z/4 z/4 z/4 z/4 z/4 z/4 z/4 z/4 z/4 z/4 z/ e/4-e/4-e/4-e/4-e/4-e/4-e/-<e/ z/4 z/ | %19
[M:5/8] d-d- d3 |] %20
V:2
 z3 z2 [D,D] | [D,D]>[D,D][D,D] [D,D][D,A,][D,A,] | [D,A,][D,A,][D,A,] [D,A,]2 [D,D] | %3
 [G,DG]>[G,DG][G,DG] [G,D][G,D][K:bass][G,D] | [D,D]3- [D,D]2 [D,A,] | %5
 [A,,A,]>[A,,A,][A,,A,] [A,,A,][A,,A,][C,A,] | [D,B,D]>[D,A,D][D,A,D] [D,A,D]2 B,, | %7
 E,>E,E, E,E,E, |[M:5/8] A,-A,- A,3 |[M:3/16] A,,3/2 |[M:3/4] [D,D]>[D,D] [D,D][D,A,] [D,A,][D,D] | %11
[M:5/8][K:treble] [G,DG]2 [G,D] [G,D]2 |[M:1/8] [G,DG] | %13
[M:3/4][K:bass] [E,E]>[E,E] [E,E][E,E] [E,E][E,E] | A2 z2 z2 | %15
[M:5/8][K:bass] [D,A,]>[D,A,][D,A,] [D,A,]2 |[M:1/8] [F,=C]/[F,C]/ | %17
[M:7/8][K:treble] [G,B,G]>[G,B,G][G,DG] [^G,B,=F]3 [G,DF] | %18
[M:27/32] z/4 z/4 z/4 z/4 z/4 z/4 z/4 z/4 z/4 z/4 z/4 z/4 z/ [A,G]/4-[A,G]/4-[A,G]/4-[A,G]/4-[A,G]/-<[A,G]/[K:bass][A,EG]/4-[A,EG]/-<[A,EG]/- | %19
[M:5/8] [A,EG]3/4 z/4 z z z2 |] %20
V:3
 x6 | x6 | x6 | x6 | x6 | x6 | x6 | x6 |[M:5/8] x5 |[M:3/16] x3/2 |[M:3/4] x6 |[M:5/8] z2 G G2 | %12
[M:1/8] x |[M:3/4] x6 | z2 ^G =G2 B/c/ |[M:5/8] x5 |[M:1/8] x |[M:7/8] x7 | %18
[M:27/32] z/4 z/4 z/4 z/4 z/4 z/4 z/4 z/4 z/4 z/4 z/4 z/4 z/4 z/4 z/4 z/4 z/4 z/4 z/4 z/4 z/ c/4-c/-<c/- | %19
[M:5/8] c3/4 z/4 z G- G/4 z/4 z/ z |] %20
V:4
 x6 | x6 | x6 | x5[K:bass] x | x6 | x6 | x6 | x6 |[M:5/8] x5 |[M:3/16] x3/2 |[M:3/4] x6 | %11
[M:5/8][K:treble] x5 |[M:1/8] x |[M:3/4][K:bass] x6 | [A,E]4- [A,E][A,G]/[A,G]/ | %15
[M:5/8][K:bass] x5 |[M:1/8] x |[M:7/8][K:treble] x7 | %18
[M:27/32] [A,DF]/4-[A,DF]/4-[A,DF]/-<[A,DF]/[A,DF]/[A,DF]/-<[A,DF]/[A,CG]/C/4-C/4-C/4-C/4-C/4-C/4-C/-<C/[K:bass] z/4 z/ | %19
[M:5/8] D2- [B,-D]/<B,/- [D,-A,-B,]/<[D,A,]/-[D,A,] |] %20
V:5
 x6 | x6 | x6 | x6 | x6 | x6 | x6 | x6 |[M:5/8] x5 |[M:3/16] x3/2 |[M:3/4] x6 |[M:5/8] x5 | %12
[M:1/8] x |[M:3/4] x6 | x6 |[M:5/8] x5 |[M:1/8] x |[M:7/8] x7 | %18
[M:27/32] A/4-A/4-A/-<A/A/A/-<A/A/ z/4 z/4 z/4 z/4 z/4 z/4 z/4 z/4 z/4 z/4 z/4 z/ | %19
[M:5/8] F2- F/4 z/4 z/ F2 |] %20
V:6
 x6 | x6 | x6 | x5[K:bass] x | x6 | x6 | x6 | x6 |[M:5/8] x5 |[M:3/16] x3/2 |[M:3/4] x6 | %11
[M:5/8][K:treble] x5 |[M:1/8] x |[M:3/4][K:bass] x6 | x6 |[M:5/8][K:bass] x5 |[M:1/8] x | %17
[M:7/8][K:treble] x7 |[M:27/32] x11/2[K:bass] x5/4 |[M:5/8] D,2 D, z2 |] %20

